__todo__/stackoverflow-icon.svg

<svg height="304" preserveAspectRatio="xMidYMid" viewBox="0 0 256 304" width="256" xmlns="http://www.w3.org/2000/svg"><path d="m216.329708 276.187929v-81.211153h26.953702v108.164854h-243.28341v-108.164854h26.9537015v81.211153z" fill="#bcbbbb"/><path d="m56.7077876 187.275718 132.3181714 27.653798 5.600769-26.603653-132.3181712-27.653798zm17.5024036-63.008653 122.5168248 57.057836 11.201539-24.503365-122.5168255-57.4078836zm33.9546628-60.2082679 103.964278 86.4618739 17.152355-20.652836-103.964277-86.4618741zm67.20923-64.0587971-21.70298 16.1022113 80.511056 108.5149027 21.70298-16.102212zm-121.4666809 248.884179h135.1185559v-26.953701h-135.1185559z" fill="#f48023"/></svg>

<?xml version="1.0" encoding="UTF-8"?>
<svg width="256px" height="304px" viewBox="0 0 256 304" version="1.1" xmlns="http://www.w3.org/2000/svg" xmlns:xlink="http://www.w3.org/1999/xlink" preserveAspectRatio="xMidYMid">
    <g>
        <polygon fill="#BCBBBB" points="216.329708 276.187929 216.329708 194.976776 243.28341 194.976776 243.28341 303.14163 0 303.14163 0 194.976776 26.9537015 194.976776 26.9537015 276.187929"></polygon>
        <path d="M56.7077876,187.275718 L189.025959,214.929516 L194.626728,188.325863 L62.3085568,160.672065 L56.7077876,187.275718 L56.7077876,187.275718 Z M74.2101912,124.267065 L196.727016,181.324901 L207.928555,156.821536 L85.4117295,99.4136524 L74.2101912,124.267065 Z M108.164854,64.0587971 L212.129132,150.520671 L229.281487,129.867835 L125.31721,43.4059609 L108.164854,64.0587971 L108.164854,64.0587971 Z M175.374084,0 L153.671104,16.1022113 L234.18216,124.617114 L255.88514,108.514902 L175.374084,0 Z M53.9074031,248.884179 L189.025959,248.884179 L189.025959,221.930478 L53.9074031,221.930478 L53.9074031,248.884179 Z" fill="#F48023"></path>
    </g>
</svg>
